public/new/iocn3.svg

<svg fill="none" height="80" viewBox="0 0 80 80" width="80" xmlns="http://www.w3.org/2000/svg" xmlns:xlink="http://www.w3.org/1999/xlink"><linearGradient id="a"><stop offset="0" stop-color="#34c796"/><stop offset="1" stop-color="#0b7a55"/></linearGradient><linearGradient id="b" gradientUnits="userSpaceOnUse" x1="40" x2="40" xlink:href="#a" y1="0" y2="80"/><linearGradient id="c" gradientUnits="userSpaceOnUse" x1="39.9993" x2="39.9993" xlink:href="#a" y1="20.6646" y2="59.3346"/><circle cx="40" cy="40" r="39" stroke="url(#b)" stroke-width="2"/><path d="m51.4253 37.5249h-5.974v-13.92c0-3.248-1.7593-3.9053-3.9053-1.4693l-1.5467 1.7593-13.0886 14.8867c-1.798 2.03-1.044 3.6926 1.6626 3.6926h5.974v13.92c0 3.248 1.7594 3.9054 3.9054 1.4694l1.5466-1.7594 13.0887-14.8866c1.798-2.03 1.044-3.6927-1.6627-3.6927z" fill="url(#c)"/></svg>

<svg width="80" height="80" viewBox="0 0 80 80" fill="none" xmlns="http://www.w3.org/2000/svg">
<circle cx="40" cy="40" r="39" stroke="url(#paint0_linear_206_1659)" stroke-width="2"/>
<path d="M51.4253 37.5249H45.4513V23.6049C45.4513 20.3569 43.692 19.6996 41.546 22.1356L39.9993 23.8949L26.9107 38.7816C25.1127 40.8116 25.8667 42.4742 28.5733 42.4742H34.5473V56.3942C34.5473 59.6422 36.3067 60.2996 38.4527 57.8636L39.9993 56.1042L53.088 41.2176C54.886 39.1876 54.132 37.5249 51.4253 37.5249Z" fill="url(#paint1_linear_206_1659)"/>
<defs>
<linearGradient id="paint0_linear_206_1659" x1="40" y1="0" x2="40" y2="80" gradientUnits="userSpaceOnUse">
<stop stop-color="#34C796"/>
<stop offset="1" stop-color="#0B7A55"/>
</linearGradient>
<linearGradient id="paint1_linear_206_1659" x1="39.9993" y1="20.6646" x2="39.9993" y2="59.3346" gradientUnits="userSpaceOnUse">
<stop stop-color="#34C796"/>
<stop offset="1" stop-color="#0B7A55"/>
</linearGradient>
</defs>
</svg>
